svg/报告助手4.svg

<svg width="48" height="48" viewBox="0 0 48 48" fill="none" xmlns="http://www.w3.org/2000/svg"><rect width="48" height="48" fill="#DADADA"/><mask id="path-2-inside-1_2483_15959" fill="white"><path d="M1041 91L-399 90.9999L-399 -18.0001L1041 -18L1041 91Z"/></mask><path d="M1041 91L-399 90.9999L-399 -18.0001L1041 -18L1041 91Z" fill="white"/><path d="M0 10C0 4.47715 4.47715 0 10 0H38C43.5229 0 48 4.47715 48 10V38C48 43.5229 43.5228 48 38 48H10C4.47715 48 0 43.5228 0 38V10Z" fill="url(#paint0_linear_2483_15959)"/><path opacity="0.7" d="M15.4487 11H31.5513C32.9025 11 34 12.1568 34 13.5808V34.3648C34 35.7888 32.9025 36.9456 31.5513 36.9456H15.4487C14.0975 36.9456 13 35.7888 13 34.3648V13.5808C13 12.1568 14.0975 11 15.4487 11Z" fill="url(#paint1_linear_2483_15959)" fill-opacity="0.6"/><path d="M33.4605 14.7661H19.4846C18.312 14.7661 17.3594 15.755 17.3594 16.9723V34.7393C17.3594 35.9566 18.312 36.9454 19.4846 36.9454H33.4605C34.6332 36.9454 35.5858 35.9566 35.5858 34.7393V16.9723C35.5858 15.755 34.6332 14.7661 33.4605 14.7661Z" fill="url(#paint2_linear_2483_15959)" stroke="url(#paint3_linear_2483_15959)" stroke-width="0.4"/><rect x="21.3203" y="18.5327" width="9.11321" height="1.67391" rx="0.836955" fill="#6EC3FB"/><rect x="21.3203" y="21.8804" width="7.92453" height="1.67391" rx="0.836955" fill="#6EC3FB"/><rect x="21.3203" y="25.2285" width="5.9434" height="1.67391" rx="0.836955" fill="#6EC3FB"/><defs><linearGradient id="paint0_linear_2483_15959" x1="24" y1="2.07168e-05" x2="24" y2="48" gradientUnits="userSpaceOnUse"><stop stop-color="#1D6FF2"/><stop offset="1" stop-color="#1AC8FC"/></linearGradient><linearGradient id="paint1_linear_2483_15959" x1="23.5" y1="11" x2="23.5" y2="36.9456" gradientUnits="userSpaceOnUse"><stop stop-color="#EBF9FF"/><stop offset="1" stop-color="#91E0FF"/></linearGradient><linearGradient id="paint2_linear_2483_15959" x1="26.9833" y1="14.7661" x2="26.9833" y2="36.9454" gradientUnits="userSpaceOnUse"><stop stop-color="#D2F2FF"/><stop offset="1" stop-color="#95D1FF"/></linearGradient><linearGradient id="paint3_linear_2483_15959" x1="26.9833" y1="14.7661" x2="26.9833" y2="36.9454" gradientUnits="userSpaceOnUse"><stop stop-color="white"/><stop offset="1" stop-color="#7FD6FF"/></linearGradient></defs></svg>

<svg fill="none" viewBox="0 0 48 48"><path fill="#DADADA" d="M0 0h48v48H0z"/><path fill="white" d="M1041 91H-399V-18h1440z"/><path fill="url(#a)" d="M0 10C0 4.477 4.477 0 10 0h28c5.523 0 10 4.477 10 10v28c0 5.523-4.477 10-10 10H10C4.477 48 0 43.523 0 38z"/><path fill="url(#b)" fill-opacity=".6" d="M15.449 11H31.55C32.903 11 34 12.157 34 13.58v20.785c0 1.424-1.097 2.58-2.449 2.58H15.45c-1.351 0-2.449-1.156-2.449-2.58V13.58C13 12.157 14.098 11 15.449 11" opacity=".7"/><path fill="url(#c)" stroke="url(#d)" stroke-width=".4" d="M33.46 14.766H19.486c-1.173 0-2.126.989-2.126 2.206V34.74c0 1.218.953 2.206 2.126 2.206H33.46c1.172 0 2.125-.988 2.125-2.206V16.972c0-1.217-.953-2.206-2.125-2.206Z"/><rect width="9.113" height="1.674" x="21.32" y="18.533" fill="#6EC3FB" rx=".837"/><rect width="7.925" height="1.674" x="21.32" y="21.88" fill="#6EC3FB" rx=".837"/><rect width="5.943" height="1.674" x="21.32" y="25.229" fill="#6EC3FB" rx=".837"/><defs><linearGradient id="a" x1="24" x2="24" y1="0" y2="48" gradientUnits="userSpaceOnUse"><stop stop-color="#1D6FF2"/><stop offset="1" stop-color="#1AC8FC"/></linearGradient><linearGradient id="b" x1="23.5" x2="23.5" y1="11" y2="36.946" gradientUnits="userSpaceOnUse"><stop stop-color="#EBF9FF"/><stop offset="1" stop-color="#91E0FF"/></linearGradient><linearGradient id="c" x1="26.983" x2="26.983" y1="14.766" y2="36.945" gradientUnits="userSpaceOnUse"><stop stop-color="#D2F2FF"/><stop offset="1" stop-color="#95D1FF"/></linearGradient><linearGradient id="d" x1="26.983" x2="26.983" y1="14.766" y2="36.945" gradientUnits="userSpaceOnUse"><stop stop-color="white"/><stop offset="1" stop-color="#7FD6FF"/></linearGradient></defs></svg>
